img/icons/icon-mail-white-2.svg

<svg width="16" height="16" viewBox="0 0 16 16" fill="none" xmlns="http://www.w3.org/2000/svg">
<path fill-rule="evenodd" clip-rule="evenodd" d="M2.66671 2.6665H13.3334C14.0667 2.6665 14.6667 3.2665 14.6667 3.99984V11.9998C14.6667 12.7332 14.0667 13.3332 13.3334 13.3332H2.66671C1.93337 13.3332 1.33337 12.7332 1.33337 11.9998L1.34004 3.99984C1.34004 3.2665 1.93337 2.6665 2.66671 2.6665ZM8.00004 8.6665L13.3334 5.33317V3.99984L8.00004 7.33317L2.66671 3.99984V5.33317L8.00004 8.6665Z" fill="white"/>
</svg>

<svg width="16" height="16" fill="none" xmlns="http://www.w3.org/2000/svg"><path fill-rule="evenodd" clip-rule="evenodd" d="M2.667 2.667h10.666c.734 0 1.334.6 1.334 1.333v8c0 .733-.6 1.333-1.334 1.333H2.667c-.734 0-1.334-.6-1.334-1.333l.007-8c0-.733.593-1.333 1.327-1.333zm5.333 6l5.333-3.334V4L8 7.333 2.667 4v1.333L8 8.666z" fill="#fff"/></svg>
